images/icons/search_icon.svg

<?xml version="1.0" encoding="UTF-8"?>
<svg width="27px" height="27px" viewBox="0 0 27 27" version="1.1" xmlns="http://www.w3.org/2000/svg" xmlns:xlink="http://www.w3.org/1999/xlink">
    <!-- Generator: sketchtool 50.2 (55047) - http://www.bohemiancoding.com/sketch -->
    <title>B85D23ED-D211-4ABF-BF3D-D0C2126F2421</title>
    <desc>Created with sketchtool.</desc>
    <defs>
        <filter x="-0.3%" y="-2.8%" width="100.5%" height="107.8%" filterUnits="objectBoundingBox" id="filter-1">
            <feOffset dx="0" dy="1" in="SourceAlpha" result="shadowOffsetOuter1"></feOffset>
            <feGaussianBlur stdDeviation="1" in="shadowOffsetOuter1" result="shadowBlurOuter1"></feGaussianBlur>
            <feColorMatrix values="0 0 0 0 0   0 0 0 0 0   0 0 0 0 0  0 0 0 0.1 0" type="matrix" in="shadowBlurOuter1" result="shadowMatrixOuter1"></feColorMatrix>
            <feMerge>
                <feMergeNode in="shadowMatrixOuter1"></feMergeNode>
                <feMergeNode in="SourceGraphic"></feMergeNode>
            </feMerge>
        </filter>
    </defs>
    <g id="Wireframes---Desktop" stroke="none" stroke-width="1" fill="none" fill-rule="evenodd" opacity="0.3">
        <g id="Dash---SmartGuide---SmartGuide-Templates" transform="translate(-380.000000, -86.000000)" fill="#414142">
            <g id="Header" transform="translate(0.000000, 55.000000)">
                <g filter="url(#filter-1)" id="Search-Icon-copy">
                    <path d="M397.340182,41.3889853 C397.340182,44.6831322 394.66364,47.3637942 391.374556,47.3637942 C388.085472,47.3637942 385.408929,44.6831322 385.408929,41.3889853 C385.408929,38.0948385 388.085472,35.4141765 391.374556,35.4141765 C394.66364,35.4141765 397.340182,38.0948385 397.340182,41.3889853 L397.340182,41.3889853 Z M404.896346,52.5176595 L399.097911,46.7102995 C400.176518,45.1499141 400.749111,43.2827863 400.749111,41.3889853 C400.749111,36.2010375 396.55453,32 391.374556,32 C386.194581,32 382,36.2010375 382,41.3889853 C382,46.5769332 386.194581,50.7779707 391.374556,50.7779707 C393.265446,50.7779707 395.129704,50.2044957 396.687692,49.1242289 L402.486127,54.9182524 L404.896346,52.5176595 Z"></path>
                </g>
            </g>
        </g>
    </g>
</svg>

<?xml version="1.0" encoding="UTF-8" standalone="no"?>
<svg
   xmlns:dc="http://purl.org/dc/elements/1.1/"
   xmlns:cc="http://creativecommons.org/ns#"
   xmlns:rdf="http://www.w3.org/1999/02/22-rdf-syntax-ns#"
   xmlns:svg="http://www.w3.org/2000/svg"
   xmlns="http://www.w3.org/2000/svg"
   xmlns:sodipodi="http://sodipodi.sourceforge.net/DTD/sodipodi-0.dtd"
   xmlns:inkscape="http://www.inkscape.org/namespaces/inkscape"
   width="24"
   height="24"
   viewBox="0 0 24 24"
   version="1.1"
   id="svg66"
   sodipodi:docname="search_icon.svg"
   inkscape:version="0.92.3 (2405546, 2018-03-11)">
  <metadata
     id="metadata70">
    <rdf:RDF>
      <cc:Work
         rdf:about="">
        <dc:format>image/svg+xml</dc:format>
        <dc:type
           rdf:resource="http://purl.org/dc/dcmitype/StillImage" />
        <dc:title>B85D23ED-D211-4ABF-BF3D-D0C2126F2421</dc:title>
      </cc:Work>
    </rdf:RDF>
  </metadata>
  <sodipodi:namedview
     pagecolor="#ffffff"
     bordercolor="#666666"
     borderopacity="1"
     objecttolerance="10"
     gridtolerance="10"
     guidetolerance="10"
     inkscape:pageopacity="0"
     inkscape:pageshadow="2"
     inkscape:window-width="1397"
     inkscape:window-height="847"
     id="namedview68"
     showgrid="false"
     inkscape:zoom="10.606602"
     inkscape:cx="15.484863"
     inkscape:cy="9.7687158"
     inkscape:window-x="42"
     inkscape:window-y="34"
     inkscape:window-maximized="0"
     inkscape:current-layer="svg66" />
  <!-- Generator: sketchtool 50.2 (55047) - http://www.bohemiancoding.com/sketch -->
  <title
     id="title41">B85D23ED-D211-4ABF-BF3D-D0C2126F2421</title>
  <desc
     id="desc43">Created with sketchtool.</desc>
  <defs
     id="defs58">
    <filter
       x="-0.003"
       y="-0.027999999"
       width="1.005"
       height="1.0780001"
       filterUnits="objectBoundingBox"
       id="filter-1">
      <feOffset
         dx="0"
         dy="1"
         in="SourceAlpha"
         result="shadowOffsetOuter1"
         id="feOffset45" />
      <feGaussianBlur
         stdDeviation="1"
         in="shadowOffsetOuter1"
         result="shadowBlurOuter1"
         id="feGaussianBlur47" />
      <feColorMatrix
         values="0 0 0 0 0   0 0 0 0 0   0 0 0 0 0  0 0 0 0.1 0"
         type="matrix"
         in="shadowBlurOuter1"
         result="shadowMatrixOuter1"
         id="feColorMatrix49" />
      <feMerge
         id="feMerge55">
        <feMergeNode
           in="shadowMatrixOuter1"
           id="feMergeNode51" />
        <feMergeNode
           in="SourceGraphic"
           id="feMergeNode53" />
      </feMerge>
    </filter>
  </defs>
  <g
     id="Wireframes---Desktop"
     style="opacity:0.3;fill:none;fill-rule:evenodd;stroke:none;stroke-width:1"
     transform="matrix(0.97501109,0,0,0.97327134,-1.1678657,-0.44464465)">
    <g
       id="Dash---SmartGuide---SmartGuide-Templates"
       transform="translate(-380,-86)"
       style="fill:#414142">
      <g
         id="Header"
         transform="translate(0,55)">
        <g
           id="Search-Icon-copy"
           style="filter:url(#filter-1)">
          <path
             d="m 397.34018,41.388985 c 0,3.294147 -2.67654,5.974809 -5.96562,5.974809 -3.28909,0 -5.96563,-2.680662 -5.96563,-5.974809 0,-3.294146 2.67654,-5.974808 5.96563,-5.974808 3.28908,0 5.96562,2.680662 5.96562,5.974808 z m 7.55617,11.128674 -5.79844,-5.80736 c 1.07861,-1.560385 1.6512,-3.427513 1.6512,-5.321314 C 400.74911,36.201037 396.55453,32 391.37456,32 386.19458,32 382,36.201037 382,41.388985 c 0,5.187948 4.19458,9.388986 9.37456,9.388986 1.89089,0 3.75514,-0.573475 5.31313,-1.653742 l 5.79844,5.794023 z"
             id="path60"
             inkscape:connector-curvature="0" />
        </g>
      </g>
    </g>
  </g>
</svg>
